build/img/logo-header.svg

<?xml version="1.0" encoding="UTF-8"?>
<svg width="93px" height="93px" viewBox="0 0 93 93" version="1.1" xmlns="http://www.w3.org/2000/svg" xmlns:xlink="http://www.w3.org/1999/xlink">
    <!-- Generator: Sketch 48.2 (47327) - http://www.bohemiancoding.com/sketch -->
    <title>Logo SVG</title>
    <desc>Created with Sketch.</desc>
    <defs></defs>
    <g id="First-page" stroke="none" stroke-width="1" fill="none" fill-rule="evenodd" transform="translate(-129.000000, 0.000000)">
        <g id="Logo-SVG" transform="translate(129.000000, 0.000000)">
            <rect id="Rectangle-2" fill="#FFFFFF" x="0" y="0" width="93" height="93"></rect>
            <path d="M0,60 L93,60 L93,72 L0,72 L0,60 Z M19.3634598,66.9259435 L20.5627299,66.9259435 C21.3200087,66.9259435 21.9158664,66.7230522 22.3503212,66.3172628 C22.7847759,65.9114737 23.002,65.3746899 23.002,64.706895 C23.002,64.0391002 22.7847759,63.5007188 22.3503212,63.0917344 C21.9158664,62.68275 21.3200087,62.4782609 20.5627299,62.4782609 L18.042,62.4782609 L18.042,69.4565217 L19.3634598,69.4565217 L19.3634598,66.9259435 Z M19.344,65.8043478 L19.344,63.5217391 L20.561037,63.5217391 C20.9376315,63.5217391 21.221604,63.6307749 21.412963,63.8488494 C21.6043219,64.066924 21.7,64.3430946 21.7,64.6773694 C21.7,65.0052772 21.6035565,65.2750807 21.4106667,65.4867881 C21.2177768,65.6984956 20.9345698,65.8043478 20.561037,65.8043478 L19.344,65.8043478 Z M32.7662119,68.4180601 L32.7662119,62.3478261 L31.558,62.3478261 L31.558,69.5217391 L35.464,69.5217391 L35.464,68.4180601 L32.7662119,68.4180601 Z M47.6350993,67.9746177 L48.0862111,69.5217391 L49.476,69.5217391 L47.247781,62.3478261 L45.8853323,62.3478261 L43.648,69.5217391 L45.0377889,69.5217391 L45.484344,67.9746177 L47.6350993,67.9746177 Z M45.632,66.9130435 L46.3646929,64.3695652 L46.3918297,64.3695652 L47.12,66.9130435 L45.632,66.9130435 Z M62.415329,67.112875 L61.12781,67.112875 C61.12781,67.5662355 61.0299959,67.9022599 60.8343648,68.1209583 C60.6387337,68.3396568 60.3422584,68.4490045 59.94493,68.4490045 C59.5263706,68.4490045 59.1995654,68.279795 58.9645047,67.9413711 C58.729444,67.6029472 58.6119155,67.1655568 58.6119155,66.6291868 L58.6119155,65.2355894 C58.6119155,64.7024122 58.7233781,64.2674161 58.9463066,63.9305887 C59.169235,63.5937611 59.4793586,63.4253498 59.8766871,63.4253498 C60.3043457,63.4253498 60.6205354,63.5346973 60.8252657,63.7533957 C61.0299959,63.9720942 61.1323595,64.304926 61.1323595,64.7519011 L62.4244283,64.7519011 L62.4335273,64.7231671 C62.4456594,63.969695 62.2242508,63.3854436 61.7692948,62.9703953 C61.3143387,62.555347 60.6834757,62.3478261 59.8766871,62.3478261 C59.1032617,62.3478261 58.4784647,62.6184015 58.0022775,63.1595606 C57.52609,63.7007196 57.288,64.3959149 57.288,65.2451675 L57.288,66.6291868 C57.288,67.481632 57.532156,68.1768272 58.0204756,68.7147935 C58.5087951,69.25276 59.1502735,69.5217391 59.94493,69.5217391 C60.7244214,69.5217391 61.33557,69.3110254 61.7783939,68.8895919 C62.2212178,68.4681583 62.4365603,67.8855032 62.4244283,67.1416091 L62.415329,67.112875 Z M74.449122,66.3683708 L74.449122,65.2597647 L72.0832976,65.2597647 L72.0832976,63.4564322 L74.8872377,63.4564322 L74.8872377,62.3478261 L70.804,62.3478261 L70.804,69.5217391 L74.896,69.5217391 L74.896,68.4180601 L72.0832976,68.4180601 L72.0832976,66.3683708 L74.449122,66.3683708 Z" id="Combined-Shape" fill="#06C9FB" fill-rule="nonzero"></path>
            <rect id="Rectangle" fill="#06C9FB" fill-rule="nonzero" transform="translate(30.000000, 32.500000) rotate(60.000000) translate(-30.000000, -32.500000) " x="15" y="30" width="30" height="5"></rect>
            <path d="M43.2195478,36.9105475 C43.2195478,41.5794627 41.9575292,45.4282225 39.4334543,48.4569426 C36.9093794,51.4856628 33.6236506,53 29.5761695,53 C25.5436237,53 22.2728301,51.4813236 19.7636906,48.4439252 C17.254551,45.4065268 16,41.5621061 16,36.9105475 L16,30.0894525 C16,25.4552505 17.2508172,21.6151688 19.7524891,18.5690921 C22.254161,15.5230155 25.5137533,14 29.5313637,14 C33.5788447,14 36.8720412,15.5230155 39.4110514,18.5690921 C41.9500618,21.6151688 43.2195478,25.4552505 43.2195478,30.0894525 L43.2195478,36.9105475 Z M36.700298,30.0373832 C36.700298,27.0867676 36.0655551,24.6655635 34.7960498,22.7736983 C33.5265447,20.881833 31.7716669,19.9359145 29.5313637,19.9359145 C27.3209312,19.9359145 25.5996574,20.881833 24.3674906,22.7736983 C23.1353239,24.6655635 22.5192497,27.0867676 22.5192497,30.0373832 L22.5192497,36.9105475 C22.5192497,39.9132325 23.1390576,42.3604712 24.3786921,44.2523365 C25.6183265,46.1442017 27.3508017,47.0901202 29.5761695,47.0901202 C31.8164727,47.0901202 33.5638829,46.1442017 34.8184527,44.2523365 C36.0730225,42.3604712 36.700298,39.9132325 36.700298,36.9105475 L36.700298,30.0373832 Z M76,52.5231911 L69.3329249,52.5231911 L55.9302773,26.6245631 L55.7932825,26.6509365 L55.7932825,52.5231911 L49.1262073,52.5231911 L49.1262073,14.123596 L55.7932825,14.123596 L69.1959302,39.9958507 L69.3329249,39.9694774 L69.3329249,14.123596 L76,14.123596 L76,52.5231911 Z" id="ON" fill="#06C9FB" fill-rule="nonzero"></path>
        </g>
    </g>
</svg>

<svg width="93" height="93" viewBox="0 0 93 93" xmlns="http://www.w3.org/2000/svg"><title>Logo SVG</title><g fill="none" fill-rule="evenodd"><path fill="#FFF" d="M0 0h93v93H0z"/><path d="M0 60h93v12H0V60zm19.363 6.926h1.2c.757 0 1.353-.203 1.787-.609.435-.406.652-.942.652-1.61 0-.668-.217-1.206-.652-1.615-.434-.41-1.03-.614-1.787-.614h-2.521v6.979h1.321v-2.531zm-.019-1.122v-2.282h1.217c.377 0 .66.109.852.327.191.218.287.494.287.828 0 .328-.096.598-.29.81-.192.211-.475.317-.849.317h-1.217zm13.422 2.614v-6.07h-1.208v7.174h3.906v-1.104h-2.698zm14.87-.443l.45 1.547h1.39l-2.228-7.174h-1.363l-2.237 7.174h1.39l.446-1.547h2.151zm-2.004-1.062l.733-2.543h.027l.728 2.543h-1.488zm16.783.2h-1.287c0 .453-.098.79-.294 1.008-.195.219-.492.328-.89.328-.418 0-.744-.17-.98-.508-.235-.338-.352-.775-.352-1.312v-1.393c0-.534.111-.969.334-1.305.223-.337.533-.506.93-.506.428 0 .745.11.95.328.204.22.306.552.306.999h1.292l.01-.029c.012-.753-.21-1.338-.665-1.753-.455-.415-1.086-.622-1.892-.622-.774 0-1.399.27-1.875.812-.476.54-.714 1.236-.714 2.085v1.384c0 .853.244 1.548.732 2.086.489.538 1.13.807 1.925.807.78 0 1.39-.211 1.833-.632.443-.422.659-1.004.646-1.748l-.009-.03zm12.034-.745V65.26h-2.366v-1.804h2.804v-1.108h-4.083v7.174h4.092v-1.104h-2.813v-2.05h2.366zM24.665 18.26l15 25.98-4.33 2.5-15-25.98z" fill="#06C9FB" fill-rule="nonzero"/><path d="M43.22 36.91c0 4.67-1.262 8.518-3.787 11.547C36.91 51.486 33.623 53 29.576 53c-4.032 0-7.303-1.519-9.812-4.556C17.254 45.407 16 41.562 16 36.91v-6.822c0-4.634 1.25-8.474 3.752-11.52C22.254 15.523 25.514 14 29.532 14c4.047 0 7.34 1.523 9.88 4.57 2.538 3.045 3.808 6.885 3.808 11.52v6.82zm-6.52-6.873c0-2.95-.634-5.371-1.904-7.263-1.27-1.892-3.024-2.838-5.265-2.838-2.21 0-3.931.946-5.164 2.838-1.232 1.892-1.848 4.313-1.848 7.263v6.874c0 3.002.62 5.45 1.86 7.341 1.24 1.892 2.972 2.838 5.197 2.838 2.24 0 3.988-.946 5.242-2.838 1.255-1.892 1.882-4.339 1.882-7.341v-6.874zM76 52.523h-6.667L55.93 26.625l-.137.026v25.872h-6.667v-38.4h6.667l13.403 25.873.137-.027V14.124H76v38.4z" fill="#06C9FB" fill-rule="nonzero"/></g></svg>
